X:1
T:Vita mia di te
T:Vita mia di te
T:Claudio Saracini
T:Source : Le terze Musische per cantar e sonar---Venetia---A.Vincenti---1620. Editor : André Vierendeels (08/12/15).
T:Notes : Original clefs : C1, F4 Text by G.B.Marino (1569-1625)
C:Claudio Saracini
%%score 1 2
L:1/8
Q:1/4=84
M:4/4
K:C
V:1 treble nm="Soprano" snm="S"
V:2 bass nm="BC" snm="BC"
V:1
 G4 A4 | B8 | c6 E2 | ^F4 F4 | d2 A3 ^FGA | B4 B4 | c6 BB | B4 _B2 G2 | G4 G4 | z Add d^c d2 | %10
w: Vi- ta|mia,|di te|pri- vo,|sai tu com' io son|vi- vo?|Poi- che mi|man- * ca'il|ve- ro|ti for- mo co'l pen- sie-|
 d2 AA A2 A^G | B4 A4 | z edc BdcB | A6 e2 | d8 | c8 | z dcB AcBA | ^G6 c2 | B8 | A8 | %20
w: ro e ti par- lo'e t'a-|do- ro,|mi- ran- do tu so- lo mio|ben non|mo-|ro,|mi- ran- do tu so- lo mio|ben non|mo-|ro,|
 z BAG ^FEcB | A6 G2 | A8 | G8 |] %24
w: mi- ran- do tu so- lo mio|ben non|mo-|ro.|
V:2
 G,4 ^F,4 | G,4 G,,4 | C,8 | D,4 D,,4 | D,8 | G,,8 | C,4 G,,4- | G,,4 G,,4 | G,,8 | D,8 | %10
 D,4 ^C,4 | E,4 A,,4 | C,4 G,,4 | D,4 E,4 | G,4 G,,4 | C,8 | G,,4 A,,4 | E,8- | E,8 | A,,8 | %20
 G,,4 D,4- | D,4 D,,4 | D,8 | G,,8 |] %24

